X:356
T: JUENGST IN DEM VERFLOSSNEN JAHR
N: B0423
O: Europa, Mitteleuropa, Deutschland; Frankreich, Elsass
R: Scherz -, Liebes - Lied, national
M: 4/4
L: 1/16
K: D
 | D6D2F3FE2D2 | A8z4
F4 | A6F2E2G2C2E2 | D8z8 |
E6E2E3EA2E2 | F4E4z4
A2A2 | ^G6G2G4F2G2 | B4A4z4
A2A2 | B6B2c4A4 | d8
d4B4 | A6F2G4E4 | D8z8

@@@ Tune index: 2159
